!!!!SEGMENT: pl-gd--ee-1638--002-035_marenzio-luca--motettorum-pro-festis-totius-anni-in-festo-apostolorum-estote-fortes-in-bello.krn
!!!cenid: 15xx:1038
!!!COM: Marenzio, Luca
!!!COM-rismID: pe30003955
!!!CDT: ~1553-1599/08/22
!!!CNT: Italian
!!!GTL: Motettorum pro festis totius anni
!!!OTL: In festo Apostolorum/Estote fortes in bello
!!!OMV: 035
!!!PDT: 1588
!!!AGN:
!!!SMS-siglum: PL-GD
!!!SMS-shelfmark: Ee 1638
!!!SMS-variant:
!!!SMS-altvar:
!!!SMS-shelfwork: 002-035 G
!!!NIFC-rismSourceID: 990039238
!!!NIFC-islandoraID: pl-gd:57883
!!!URL-pdf-islandora: https://repozytorium.nifc.pl/islandora/object/pl-gd%3A57883/datastream/PDF/view
!!!URL-scan: https://polish.musicsources.pl/pl/lokalizacje/galeria/klocki-introligatorskie/655 @EN{Scan on Polish Music Sources Website} @PL{Skany w portalu Dziedzictwo Muzyki Polskiej w otwartym dostępie}
!!!ONB-nifc: UWAGA: Cantus: s. 633 (od ostatniego systemu po lewej), Altus: s. 481, Tenor: s. 329, Bassus: s. 177
!!!AIN: 1 alto 1 bass 1 soprn 1 tenor
!!!key:
**kern	**text	**kern	**text	**kern	**text	**kern	**text
*part4	*part4	*part3	*part3	*part2	*part2	*part1	*part1
*staff4	*staff4	*staff3	*staff3	*staff2	*staff2	*staff1	*staff1
*I"BASSUS	*	*I"TENOR	*	*I"ALTUS	*	*I"CANTUS	*
*I'B	*	*I'T	*	*I'A	*	*I'S	*
*Ibass	*	*Itenor	*	*Ialto	*	*Isoprn	*
*ICvox	*	*ICvox	*	*ICvox	*	*ICvox	*
*IG	*	*	*	*	*	*	*
*clefF4	*	*clefC4	*	*clefC3	*	*clefC1	*
*k[b-]	*	*k[b-]	*	*k[b-]	*	*k[b-]	*
*F:	*	*F:	*	*F:	*	*F:	*
*M2/2	*	*M2/2	*	*M2/2	*	*M2/2	*
*met(C|)	*	*met(C|)	*	*met(C|)	*	*met(C|)	*
=1-	=1-	=1-	=1-	=1-	=1-	=1-	=1-
1r	.	1r	.	1c	Es-	1r	.
=2-	=2-	=2-	=2-	=2-	=2-	=2-	=2-
1r	.	1r	.	2d\	-to-	1f	Es-
.	.	.	.	2d\	-te	.	.
=3-	=3-	=3-	=3-	=3-	=3-	=3-	=3-
1r	.	1F	Es-	1f	for-	2a\	-to-
.	.	.	.	.	.	2a\	-te
=4-	=4-	=4-	=4-	=4-	=4-	=4-	=4-
1F	ES-	2A/	-to-	1c	-tes	1cc	for-
.	.	2A/	-te	.	.	.	.
=5-	=5-	=5-	=5-	=5-	=5-	=5-	=5-
1F	-to-	1c	for-	2r	.	1a	-tes
.	.	.	.	2c/	in	.	.
=6-	=6-	=6-	=6-	=6-	=6-	=6-	=6-
1F	-te	1c	-tes	4A/	bel-	2r	.
.	.	.	.	4G/	.	.	.
.	.	.	.	4A/	.	2cc\	in
.	.	.	.	4B-/	.	.	.
=7-	=7-	=7-	=7-	=7-	=7-	=7-	=7-
1F	for-	2r	.	2c/	.	4a\	bel-
.	.	.	.	.	.	4g\	.
.	.	2c\	in	2F/	-lo	4a\	.
.	.	.	.	.	.	4b-\	.
=8-	=8-	=8-	=8-	=8-	=8-	=8-	=8-
1F	-tes	4A/	bel-	2r	.	2cc\	.
.	.	4G/	.	.	.	.	.
*	*	*	*	*	*ij	*	*
.	.	4A/	.	2c/	in	2f/	-lo
.	.	4B-\	.	.	.	.	.
=9-	=9-	=9-	=9-	=9-	=9-	=9-	=9-
1F	in	2c\	.	4A/	bel-	2r	.
.	.	.	.	4G/	.	.	.
*	*	*	*	*	*	*	*ij
.	.	2F/	-lo	4A/	.	2cc\	in
.	.	.	.	4B-/	.	.	.
=10-	=10-	=10-	=10-	=10-	=10-	=10-	=10-
1F	bel-	2r	.	2c/	.	4a\	bel-
.	.	.	.	.	.	4b-\	.
*	*	*	*ij	*	*	*	*
.	.	2c\	in	2F/	-lo	4cc\	.
*	*	*	*	*	*Xij	*	*
.	.	.	.	.	.	4a\	.
=11-	=11-	=11-	=11-	=11-	=11-	=11-	=11-
0BB-	-lo	4d\	bel-	2r	.	0b-	.
.	.	4c\	.	.	.	.	.
!	!	!	!	!LO:SIC:v:t=custos d	!	!	!
.	.	4d\	.	2f\	in	.	.
!	!	!	!	!LO:LB:g=original	!	!	!
.	.	4e\	.	.	.	.	.
=12-	=12-	=12-	=12-	=12-	=12-	=12-	=12-
.	.	1f	.	4d\	bel-	.	.
.	.	.	.	4c\	.	.	.
.	.	.	.	4d\	.	.	.
.	.	.	.	4e\	.	.	.
=13-	=13-	=13-	=13-	=13-	=13-	=13-	=13-
2r	.	2F/	lo	2f\	.	1a	-lo
*	*	*	*	*	*	*	*Xij
2F\	in	2G/	in	2c/	-lo	.	.
=14-	=14-	=14-	=14-	=14-	=14-	=14-	=14-
4D/	bel-	4F/	bel-	1f	Eſ-	1a	Eſ-
4C/	.	4E/	.	.	.	.	.
4D/	.	4F/	.	.	.	.	.
!	!	!LO:SIC:v:t=custos A	!	!	!	!	!
4E\	.	4G/	.	.	.	.	.
!	!	!LO:LB:g=original	!	!	!	!	!
=15-	=15-	=15-	=15-	=15-	=15-	=15-	=15-
!	!	!	!	!	!	!LO:SIC:v:t=custos a	!
2F\	lo	2A/	.	1f	-to-	1a	-to-
!	!	!	!	!	!	!LO:LB:g=original	!
!	!	!LO:TX:a:t=In festo Apostolorum	!	!	!	!	!
2D/	in	1F/	-lo	.	.	.	.
=16-	=16-	=16-	=16-	=16-	=16-	=16-	=16-
!	!	!	!	!LO:TX:a:t=In festo Apostolorum	!	!LO:TX:a:t=In festo Apostolorum	!
2A\	bel-	.	.	1f	-te	1a	-te
4F\	.	1c\	in	.	.	.	.
4E\	.	.	.	.	.	.	.
=17-	=17-	=17-	=17-	=17-	=17-	=17-	=17-
4F\	.	.	.	1f	for-	1a	for-
4G\	.	.	.	.	.	.	.
!LO:SIC:v:t=custos F	!	!	!	!	!	!	!
2A\	.	4F/	bel-	.	.	.	.
!LO:LB:g=original	!	!	!	!	!	!	!
.	.	4G/	.	.	.	.	.
=18-	=18-	=18-	=18-	=18-	=18-	=18-	=18-
!LO:TX:a:t=In festo Apostolorum	!	!	!	!	!	!	!
2F\	lo	4A/	.	1f	-tes	1a	-tes
.	.	4B-\	.	.	.	.	.
2F\	in	2c\	lo	.	.	.	.
=19-	=19-	=19-	=19-	=19-	=19-	=19-	=19-
4D/	bel-	2d\	in	1f	i	1a	i
4C/	.	.	.	.	.	.	.
4D/	.	2d\	bel-	.	.	.	.
4E\	.	.	.	.	.	.	.
=20-	=20-	=20-	=20-	=20-	=20-	=20-	=20-
1F	.	4c\	.	1f	bel-	1a	bel-
.	.	4B-\	.	.	.	.	.
.	.	4A/	.	.	.	.	.
.	.	4B-\	.	.	.	.	.
=21-	=21-	=21-	=21-	=21-	=21-	=21-	=21-
1C	-lo	2c\	.	1e	-lo	1g	-lo
.	.	2G/	-lo	.	.	.	.
*	*	*	*Xij	*	*	*	*
=22-	=22-	=22-	=22-	=22-	=22-	=22-	=22-
1r	.	1r	.	2c/	et	2.cc\	et
.	.	.	.	2e\	pu-	.	.
.	.	.	.	.	.	4b-\	pu-
=23-	=23-	=23-	=23-	=23-	=23-	=23-	=23-
2r	.	2r	.	2f\	-gna-	2a\	-gna-
2C/	et	2.c\	et	2e\	-te	2g/	-te
=24-	=24-	=24-	=24-	=24-	=24-	=24-	=24-
2E\	pu-	.	.	2r	.	2r	.
.	.	4B-\	pu-	.	.	.	.
2F\	-gna-	2A/	-gnan-	2c/	et	2.cc\	et
=25-	=25-	=25-	=25-	=25-	=25-	=25-	=25-
2C/	-te	2G/	-te	2e\	-pu-	.	.
.	.	.	.	.	.	4b-\	-pu-
*	*ij	*	*ij	*	*	*	*
2FF/	et	2.c\	et	2f\	-gna-	2a\	-gna-
=26-	=26-	=26-	=26-	=26-	=26-	=26-	=26-
2C/	pu-	.	.	2e\	-te	2g/	-te
.	.	4B-\	pu-	.	.	.	.
!	!	!LO:SIC:v:t=custos E	!	!	!	!	!
*	*	*	*	*	*ij	*	*ij
2FF/	-gnan-	2A/	-gnan-	2c/	et	2.cc\	et
!	!	!LO:LB:g=original	!	!	!	!	!
=27-	=27-	=27-	=27-	=27-	=27-	=27-	=27-
2C/	-te	2E/	-te	2g\	pu-	.	.
.	.	.	.	.	.	4b-\	pu-
!	!	!	!	!LO:SIC:v:t=custos c	!	!	!
2F\	et	2.c\	et	2f\	-gna-	2a\	-gna-
!	!	!	!	!LO:LB:g=original	!	!	!
=28-	=28-	=28-	=28-	=28-	=28-	=28-	=28-
2E\	pu-	.	.	2.c/	.	2g/	-te
*	*	*	*	*	*	*	*Xij
.	.	4B-\	pu-	.	.	.	.
2F\	-gna-	2A/	-gnan-	.	.	1cc\	cu(m)
.	.	.	.	4d\	.	.	.
=29-	=29-	=29-	=29-	=29-	=29-	=29-	=29-
1C	-te	1G	-te	1e	te	.	.
*	*Xij	*	*Xij	*	*Xij	*	*
.	.	.	.	.	.	2cc\	an-
=30-	=30-	=30-	=30-	=30-	=30-	=30-	=30-
2F\	cu(m)	2A/	cu(m)	2r	.	4cc\	-ti-
.	.	.	.	.	.	4b-\	.
!LO:SIC:v:t=custos F	!	!	!	!	!	!	!
2F\	an-	1c\	an-	1f\	cu(m)	4a\	.
!LO:LB:g=original	!	!	!	!	!	!	!
.	.	.	.	.	.	4g/	.
=31-	=31-	=31-	=31-	=31-	=31-	=31-	=31-
4F\	ti-	.	.	.	.	1a	-qu-
4E\	.	.	.	.	.	.	.
4D/	.	2.d\	-ti-	2f\	an-	.	.
4C/	.	.	.	.	.	.	.
=32-	=32-	=32-	=32-	=32-	=32-	=32-	=32-
1BB-	qu-	.	.	4f\	-ti-	2b-\	-o
.	.	4c\	.	4e\	.	.	.
.	.	4B-\	.	4d\	.	2f/	ſer-
.	.	4A\	.	4c\	.	.	.
=33-	=33-	=33-	=33-	=33-	=33-	=33-	=33-
2BB-/	-o	1B-	.	1d	-qu-	2.g/	-pen-
2C/	ſer-	.	.	.	.	.	.
.	.	.	.	.	.	8f/	.
!	!	!	!	!	!	!LO:SIC:v:t=custos f	!
.	.	.	.	.	.	8e/	.
!	!	!	!	!	!	!LO:LB:g=original	!
=34-	=34-	=34-	=34-	=34-	=34-	=34-	=34-
2.D/	-pen-	2A/	-quo	1d	-o	2.f/	.
.	.	2B-\	ſer-	.	.	.	.
8C/	.	.	.	.	.	8e/	.
8BB-/	.	.	.	.	.	8d/	.
=35-	=35-	=35-	=35-	=35-	=35-	=35-	=35-
2.AA/	.	2.c\	-pen-	2r	.	4e/	.
.	.	.	.	.	.	4c/	.
.	.	.	.	2c/	ſer-	2.f/	.
4BB-/	.	8B-\	.	.	.	.	.
.	.	8A\	.	.	.	.	.
=36-	=36-	=36-	=36-	=36-	=36-	=36-	=36-
1C	.	1G	.	1c	-pen-	.	.
.	.	.	.	.	.	8e/	.
.	.	.	.	.	.	8d/	.
.	.	.	.	.	.	2e/	.
=37-	=37-	=37-	=37-	=37-	=37-	=37-	=37-
2FF/	-te	0F	-te	1c	-te	0f	te
2F\	Eſ-	.	.	.	.	.	.
=38-	=38-	=38-	=38-	=38-	=38-	=38-	=38-
2A\	-to-	.	.	2r	.	.	.
2A\	-te	.	.	2c/	Eſ-	.	.
=39-	=39-	=39-	=39-	=39-	=39-	=39-	=39-
1B-	for-	1r	.	2d\	-to-	2r	.
.	.	.	.	2d\	-te	2f/	Eſ-
=40-	=40-	=40-	=40-	=40-	=40-	=40-	=40-
0F	-tes	2r	.	1f	for-	2a\	-to-
.	.	2F/	Eſ-	.	.	2a\	-te
=41-	=41-	=41-	=41-	=41-	=41-	=41-	=41-
.	.	2A/	-to-	2c/	-tes	1.cc	for-
.	.	2A/	-te	2f\	in	.	.
=42-	=42-	=42-	=42-	=42-	=42-	=42-	=42-
!	!	!LO:SIC:v:t=custos B-	!	!	!	!	!
1C	Eſ-	1c	for-	4e\	bel-	.	.
!	!	!LO:LB:g=original	!	!	!	!	!
.	.	.	.	4d\	.	.	.
.	.	.	.	4e\	.	1g\	-tes
.	.	.	.	4f\	.	.	.
=43-	=43-	=43-	=43-	=43-	=43-	=43-	=43-
2E\	-to-	2G/	-tes	0g	.	.	.
2E\	-te	2.c\	in	.	.	2e/	in
=44-	=44-	=44-	=44-	=44-	=44-	=44-	=44-
1G	for-	.	.	.	.	1d	bel-
.	.	8B-\	.	.	.	.	.
.	.	8A\	.	.	.	.	.
!	!	!LO:N:acc=#	!	!	!	!	!
.	.	2Bn\	bel-	.	.	.	.
=45-	=45-	=45-	=45-	=45-	=45-	=45-	=45-
2C/	-tes	1c	-lo	1g	-lo	2e/	-lo
!LO:SIC:v:t=custos F	!	!	!	!	!	!	!
2C/	in	.	.	.	.	2e/	in
!LO:LB:g=original	!	!	!	!	!	!	!
=46-	=46-	=46-	=46-	=46-	=46-	=46-	=46-
4F\	bel-	2c\	in	2r	.	4a\	bel-
4E\	.	.	.	.	.	4g/	.
4F\	.	2A/	.	1c\	in	4a\	.
4G\	.	.	.	.	.	4b-\	.
=47-	=47-	=47-	=47-	=47-	=47-	=47-	=47-
2A\	lo	4F/	bel-	.	.	2cc\	.
.	.	4E/	.	.	.	.	.
!	!	!	!	!LO:SIC:v:t=custos c	!	!	!
2D/	in	4F/	.	2d\	bel-	1a\	-lo
!	!	!	!	!LO:LB:g=original	!	!	!
.	.	4G/	.	.	.	.	.
=48-	=48-	=48-	=48-	=48-	=48-	=48-	=48-
2F\	bel-	2A/	lo	2c/	-lo	.	.
!	!	!	!	!	!	!LO:SIC:v:t=custos a	!
*	*	*	*	*	*ij	*	*
4A\	.	2F/	in	2f\	in	2cc\	in
!	!	!	!	!	!	!LO:LB:g=original	!
4G\	.	.	.	.	.	.	.
=49-	=49-	=49-	=49-	=49-	=49-	=49-	=49-
4A\	.	2c\	bel-	1e	bel-	4a\	bel-
4B-\	.	.	.	.	.	4g\	.
2c\	.	4A/	.	.	.	4a\	.
.	.	4G/	.	.	.	4b-\	.
=50-	=50-	=50-	=50-	=50-	=50-	=50-	=50-
1F	lo	4A/	.	1c	-lo	4cc\	.
*	*	*	*	*	*Xij	*	*
.	.	4B\	.	.	.	4b-\	.
.	.	1c\	.	.	.	2a\	.
=51-	=51-	=51-	=51-	=51-	=51-	=51-	=51-
2F\	et	.	.	2.f\	et	1a	-lo
2A\	pu-	2F/	lo	.	.	.	.
.	.	.	.	4e\	pu-	.	.
=52-	=52-	=52-	=52-	=52-	=52-	=52-	=52-
2B-\	-gna-	2B\	et	2d\	-gna-	2.f/	et
2F\	-te	2A/	pu-	2c/	-te	.	.
.	.	.	.	.	.	4e/	pu-
=53-	=53-	=53-	=53-	=53-	=53-	=53-	=53-
2BB-/	et	2B\	-gna-	2.f\	et	2d/	-gna-
2AA/	pu-	2.F/	-te	.	.	2c/	-te
.	.	.	.	4e\	pu-	.	.
=54-	=54-	=54-	=54-	=54-	=54-	=54-	=54-
2BB-/	-gna-	.	.	2d\	-gna-	2.f/	et
.	.	4G/	.	.	.	.	.
!	!	!LO:SIC:v:t=custos c	!	!	!	!	!
2FF/	-te	2A/	.	2c/	-te	.	.
!	!	!LO:LB:g=original	!	!	!	!	!
.	.	.	.	.	.	4g/	pu-
=55-	=55-	=55-	=55-	=55-	=55-	=55-	=55-
2F\	et	2.c\	et	1r	.	2a\	-gna-
2E\	pu-	.	.	.	.	2g/	-te
.	.	4B\	pu-	.	.	.	.
=56-	=56-	=56-	=56-	=56-	=56-	=56-	=56-
2F\	-gna-	2A/	-gna-	2c/	et	2.cc\	et
!LO:SIC:v:t=custos FF	!	!	!	!	!	!	!
2C/	-te	2G/	-te	2e\	pu-	.	.
!LO:LB:g=original	!	!	!	!	!	!	!
.	.	.	.	.	.	4b-\	pu-
=57-	=57-	=57-	=57-	=57-	=57-	=57-	=57-
2FF/	et	2.c\	et	2f\	-gna-	2a\	-gna-
2C/	pu-	.	.	2e\	-te	2g/	-te
.	.	4B\	pu-	.	.	.	.
=58-	=58-	=58-	=58-	=58-	=58-	=58-	=58-
*	*	*	*	*	*ji	*	*
2FF/	-gna-	2A/	-gna-	2c/	et	2cc\	cu(m)
2C/	-te	2G/	-te	2e\	pu-	2cc\	an-
=59-	=59-	=59-	=59-	=59-	=59-	=59-	=59-
2F\	cum	1A	cu(m)	2f\	-gna-	4cc\	-ti-
.	.	.	.	.	.	4b-\	.
2F\	an-	.	.	2c/	-te	4a\	.
*	*	*	*	*	*Xij	*	*
.	.	.	.	.	.	4g\	.
=60-	=60-	=60-	=60-	=60-	=60-	=60-	=60-
!	!	!	!	!	!	!LO:SIC:v:t=custos b-	!
4F\	-ti-	2c\	an-	2f\	cum	1a	.
!	!	!	!	!	!	!LO:LB:g=original	!
4E\	.	.	.	.	.	.	.
!	!	!	!	!LO:SIC:v:t=custos f	!	!	!
4D/	.	2.d\	-ti-	2f\	an-	.	.
!	!	!	!	!LO:LB:g=original	!	!	!
4C/	.	.	.	.	.	.	.
=61-	=61-	=61-	=61-	=61-	=61-	=61-	=61-
1BB-	.	.	.	4f\	-ti-	2b-\	-quo
.	.	4c\	.	4e\	.	.	.
.	.	4B\	.	4d\	.	2f/	ſer-
.	.	4A/	.	4c/	.	.	.
=62-	=62-	=62-	=62-	=62-	=62-	=62-	=62-
2BB-/	-quo	1B	.	1d	.	2.g/	-pen-
2C/	ſer-	.	.	.	.	.	.
.	.	.	.	.	.	8f/	.
.	.	.	.	.	.	8e/	.
=63-	=63-	=63-	=63-	=63-	=63-	=63-	=63-
2.D/	-pen-	2A/	-quo	1d	-quo	2.f/	.
.	.	2B\	ſer-	.	.	.	.
8C/	.	.	.	.	.	8e/	.
8BB-/	.	.	.	.	.	8d/	.
=64-	=64-	=64-	=64-	=64-	=64-	=64-	=64-
2.AA/	.	2.c\	-pen-	2r	.	2.e/	.
.	.	.	.	2c/	ſer-	.	.
4BB-/	.	8B\	.	.	.	4d/	.
.	.	8A\	.	.	.	.	.
=65-	=65-	=65-	=65-	=65-	=65-	=65-	=65-
0C	.	4G/	.	0c	-pen-	4e/	.
.	.	4E/	.	.	.	4c/	.
.	.	4A/	.	.	.	2.f/	.
.	.	8G/	.	.	.	.	.
.	.	8F/	.	.	.	.	.
=66-	=66-	=66-	=66-	=66-	=66-	=66-	=66-
.	.	1G	.	.	.	.	.
.	.	.	.	.	.	8e/	.
.	.	.	.	.	.	8d/	.
.	.	.	.	.	.	2e/	.
=67-	=67-	=67-	=67-	=67-	=67-	=67-	=67-
1FF	-te	1F	-te	0.c	-te	0.f	te
=68-	=68-	=68-	=68-	=68-	=68-	=68-	=68-
2.F\	et	2.A/	et	.	.	.	.
!	!	!LO:SIC:v:t=custos A	!	!	!	!	!
4F\	ac-	4A/	ac-	.	.	.	.
!	!	!LO:LB:g=original	!	!	!	!	!
=69-	=69-	=69-	=69-	=69-	=69-	=69-	=69-
2F\	-ci-	2A/	-ci-	.	.	.	.
!LO:SIC:v:t=custos G	!	!	!	!	!	!	!
2F\	-pi-	2A/	-pi-	.	.	.	.
!LO:LB:g=original	!	!	!	!	!	!	!
=70-	=70-	=70-	=70-	=70-	=70-	=70-	=70-
1G	-e-	1B	-e-	1r	.	1r	.
=71-	=71-	=71-	=71-	=71-	=71-	=71-	=71-
2A\	-tis	1F	-tis	2.c/	et	2.a\	et
2.A\	re	.	.	.	.	.	.
.	.	.	.	4c/	ac-	4a\	ac-
=72-	=72-	=72-	=72-	=72-	=72-	=72-	=72-
.	.	0F	re-	2c/	-ci-	2a\	-ci-
4G\	.	.	.	.	.	.	.
4F\	.	.	.	2c/	-pi-	2a\	-pi-
4E\	.	.	.	.	.	.	.
=73-	=73-	=73-	=73-	=73-	=73-	=73-	=73-
1D	.	.	.	1d	-e-	1b-	-e-
=74-	=74-	=74-	=74-	=74-	=74-	=74-	=74-
1C	gnu(m)	2G/	-gnu(m)	2e\	-tis	2cc\	-tis
.	.	2G/	(a)e-	2.e\	re-	2.cc\	re-
=75-	=75-	=75-	=75-	=75-	=75-	=75-	=75-
1AA	ae-	1.A	-ter-	.	.	.	.
!	!	!	!	!	!	!LO:SIC:v:t=custos a	!
.	.	.	.	4d\	.	4b-\	.
!	!	!	!	!	!	!LO:LB:g=original	!
.	.	.	.	4c/	.	4a\	.
.	.	.	.	4B-/	.	4g\	.
=76-	=76-	=76-	=76-	=76-	=76-	=76-	=76-
1D	-ter-	.	.	4A/	.	1f	.
.	.	.	.	4F/	.	.	.
.	.	2A/	-num	2.f\	.	.	.
=77-	=77-	=77-	=77-	=77-	=77-	=77-	=77-
1C	-num	2.c\	et	.	.	1g	gnu
.	.	.	.	8e\	.	.	.
!	!	!	!	!LO:SIC:v:t=custos e	!	!	!
.	.	.	.	8d\	.	.	.
!	!	!	!	!LO:LB:g=original	!	!	!
.	.	.	.	2e\	.	.	.
.	.	4c\	ac-	.	.	.	.
=78-	=78-	=78-	=78-	=78-	=78-	=78-	=78-
2.F\	et	2c\	-ci-	0f	gnu(m)	2.a\	et
.	.	2c\	-pi-	.	.	.	.
4F\	ac-	.	.	.	.	4a\	ac-
=79-	=79-	=79-	=79-	=79-	=79-	=79-	=79-
2F\	-ci-	0d	-e-	.	.	2a\	-ci-
2F\	-pi-	.	.	.	.	2a\	-pi-
=80-	=80-	=80-	=80-	=80-	=80-	=80-	=80-
1G	-e-	.	.	1r	.	1b-	-e-
=81-	=81-	=81-	=81-	=81-	=81-	=81-	=81-
2A\	-tis	1c	-tis	2.e\	et	0cc	-tis
2.c\	re-	.	.	.	.	.	.
.	.	.	.	4e\	ac-	.	.
=82-	=82-	=82-	=82-	=82-	=82-	=82-	=82-
.	.	4A\	re-	2e\	-ci-	.	.
4B-\	.	4B\	.	.	.	.	.
4A\	.	4c\	.	2e\	-pi-	.	.
4G\	.	4B\	.	.	.	.	.
=83-	=83-	=83-	=83-	=83-	=83-	=83-	=83-
4F\	.	4A\	.	1f	-e-	1r	.
4E\	.	4G/	.	.	.	.	.
2D/	.	2F/	.	.	.	.	.
=84-	=84-	=84-	=84-	=84-	=84-	=84-	=84-
!LO:SIC:v:t=custos AA	!	!	!	!	!	!	!
1C	-gnu(m)	2c\	-gnu(m)	2g\	-tis	2.e/	et
!LO:LB:g=original	!	!	!	!	!	!	!
.	.	2G/	(a)e-	2.c/	re-	.	.
.	.	.	.	.	.	4e/	ac-
=85-	=85-	=85-	=85-	=85-	=85-	=85-	=85-
1AA	ae-	2.c\	-ter-	.	.	2e/	-ci-
.	.	.	.	4B-/	.	.	.
.	.	.	.	4A/	.	2e/	-pi-
!	!	!LO:SIC:v:t=custos A	!	!	!	!	!
.	.	4Bny\	.	4G/	.	.	.
!	!	!LO:LB:g=original	!	!	!	!	!
=86-	=86-	=86-	=86-	=86-	=86-	=86-	=86-
1D	-ter-	4A/	.	4F/	.	1f	-e-
.	.	4G/	.	4G/	.	.	.
.	.	1F/	.	4A/	.	.	.
.	.	.	.	4F/	.	.	.
=87-	=87-	=87-	=87-	=87-	=87-	=87-	=87-
1C	-num	.	.	2c/	.	1g	-tis
.	.	2E/	nu(m)	2G/	gnu(m)	.	.
=88-	=88-	=88-	=88-	=88-	=88-	=88-	=88-
1r	.	2.A/	et	2.c/	re-	2r	.
.	.	.	.	.	.	2.cc\	re-
.	.	4A/	ac-	4c/	.	.	.
=89-	=89-	=89-	=89-	=89-	=89-	=89-	=89-
1r	.	2A/	-ci-	2c/	.	.	.
.	.	.	.	.	.	4b-\	.
.	.	2A/	-pi-	2c/	.	4a\	.
.	.	.	.	.	.	4g/	.
=90-	=90-	=90-	=90-	=90-	=90-	=90-	=90-
1r	.	1B	-e-	1d	.	4f/	.
!	!	!	!	!	!	!LO:SIC:v:t=custos f	!
.	.	.	.	.	.	4e/	.
!	!	!	!	!	!	!LO:LB:g=original	!
.	.	.	.	.	.	4f/	.
.	.	.	.	.	.	4g/	.
=91-	=91-	=91-	=91-	=91-	=91-	=91-	=91-
!	!	!	!	!LO:SIC:v:t=custos a	!	!	!
2.AA/	et	2c\	-tis	2e\	.	4a\	.
!	!	!	!	!LO:LB:g=original	!	!	!
.	.	.	.	.	.	4g/	.
.	.	2.c\	re-	2.a\	.	2f/	.
4AA/	ac-	.	.	.	.	.	.
=92-	=92-	=92-	=92-	=92-	=92-	=92-	=92-
2AA/	-ci-	.	.	.	.	2e/	gnu(m)
.	.	4B\	.	4g\	.	.	.
2AA/	-pi-	4A/	.	4f\	.	2cc\	.
.	.	4G/	.	4e\	.	.	.
=93-	=93-	=93-	=93-	=93-	=93-	=93-	=93-
1BB-	-e-	4F/	.	1d	.	4b-\	ae-
.	.	4E/	.	.	.	4a\	-ter-
.	.	2D/	.	.	.	4g/	.
.	.	.	.	.	.	4f/	.
=94-	=94-	=94-	=94-	=94-	=94-	=94-	=94-
1C	-tis	1G	-gnu(m)	2c/	gnum	4e/	.
.	.	.	.	.	.	4f/	.
.	.	.	.	2c/	(a)e-	4g/	.
.	.	.	.	.	.	4e/	.
=95-	=95-	=95-	=95-	=95-	=95-	=95-	=95-
*	*ij	*	*	*	*	*	*
2.F\	et	2.A/	et	1c	-ter-	1f	.
4F\	ac-	4A/	ac-	.	.	.	.
=96-	=96-	=96-	=96-	=96-	=96-	=96-	=96-
2F\	-ci-	2A/	-ci-	1f	-num	1c	-nu(m)
2F\	-pi-	2A/	-pi-	.	.	.	.
=97-	=97-	=97-	=97-	=97-	=97-	=97-	=97-
1G	-e-	1B	-e-	1r	.	1r	.
=98-	=98-	=98-	=98-	=98-	=98-	=98-	=98-
2A\	-tis	1F	-tis	2.c/	et	2.a\	et
*	*Xij	*	*	*	*	*	*
2.A\	.	.	.	.	.	.	.
.	.	.	.	4c/	ac-	4a\	ac-
=99-	=99-	=99-	=99-	=99-	=99-	=99-	=99-
!	!	!LO:SIC:v:t=custos G	!	!	!	!	!
.	.	0F	re-	2c/	-ci-	2a\	-ci-
!	!	!LO:LB:g=original	!	!	!	!	!
4G\	re-	.	.	.	.	.	.
4F\	.	.	.	2c/	-pi-	2a\	-pi-
4E\	.	.	.	.	.	.	.
=100-	=100-	=100-	=100-	=100-	=100-	=100-	=100-
1D	.	.	.	1d	-e-	1b-	-e-
=101-	=101-	=101-	=101-	=101-	=101-	=101-	=101-
1C	gnu(m)	2G/	-gnu(m)	2e\	-tis	2cc\	-tis
.	.	1E/	(a)e-	2.e\	re-	2.cc\	re-
=102-	=102-	=102-	=102-	=102-	=102-	=102-	=102-
1AA	(a)e-	.	.	.	.	.	.
!	!	!	!	!	!	!LO:SIC:v:t=custos a	!
.	.	.	.	4d\	.	4b-\	.
!	!	!	!	!	!	!LO:LB:g=original	!
.	.	2.F/	-ter-	1c\	.	4a\	.
.	.	.	.	.	.	4g\	.
=103-	=103-	=103-	=103-	=103-	=103-	=103-	=103-
0A	-ter-	.	.	.	.	2f/	.
.	.	4G/	.	.	.	.	.
.	.	4A/	.	2c/	gnu(m)	1e/	.
.	.	4B\	.	.	.	.	.
=104-	=104-	=104-	=104-	=104-	=104-	=104-	=104-
.	.	2.c\	.	2e\	ae-	.	.
.	.	.	.	2.f\	-ter-	2c/	gnu(m)
.	.	4A/	.	.	.	.	.
=105-	=105-	=105-	=105-	=105-	=105-	=105-	=105-
!	!	!LO:N:acc=#	!	!	!	!	!
0G	-num	2Bn\	.	.	.	1g	aeter-
.	.	.	.	4e\	.	.	.
.	.	2.c\	.	2e\	.	.	.
=106-	=106-	=106-	=106-	=106-	=106-	=106-	=106-
!LO:SIC:v:t=custos C	!	!	!	!LO:SIC:v:t=custos e	!	!	!
.	.	.	.	1d	-num	1g	-num
!	!	!	!	!LO:LB:g=original	!	!	!
.	.	8B\	.	.	.	.	.
.	.	8A\	.	.	.	.	.
!	!	!LO:N:acc=#	!	!	!	!	!
.	.	2Bn\	.	.	.	.	.
=107-	=107-	=107-	=107-	=107-	=107-	=107-	=107-
*M3/1	*	*M3/1	*	*M3/1	*	*M3/1	*
*met(O|)	*	*met(O|)	*	*met(O|)	*	*met(O|)	*
!LO:LB:g=original	!	!	!	!	!	!	!
1C	Al-	00c	num	1e	Al-	1g	Al-
1AA	-le-	.	.	1f	-le-	1a	-le-
1C	-lu-	.	.	1e	-lu-	1g	-lu-
=108-	=108-	=108-	=108-	=108-	=108-	=108-	=108-
2FF/	-ia	.	.	1.a	-ia	1.cc	-ia
2GG/	.	.	.	.	.	.	.
2AA/	.	1r	.	.	.	.	.
2BB-/	.	.	.	4g\	.	4b-\	.
.	.	.	.	4f\	.	4a\	.
1C	.	1r	.	1e	.	1g	.
=109-	=109-	=109-	=109-	=109-	=109-	=109-	=109-
1F	Al-	1A	Al-	1c	Al-	1f	Al-
1D	-le-	1B	-le-	1d	-le-	1f	-le-
1F	-lu-	1A	-lu-	1c	-lu-	1f	-lu-
=110-	=110-	=110-	=110-	=110-	=110-	=110-	=110-
2BB-/	-ia	1.d	-ia	0B-	-ia	1.f	-ia
2C/	.	.	.	.	.	.	.
2D/	.	.	.	.	.	.	.
2E\	.	4c\	.	.	.	4e/	.
.	.	4B\	.	.	.	4d/	.
1F	.	1A	.	1r	.	1c	.
=111-	=111-	=111-	=111-	=111-	=111-	=111-	=111-
!	!	!	!	!	!	!LO:SIC:v:t=custos a	!
*	*	*	*ij	*	*	*	*
1A	Al-	1c	Al-	1e	Al-	1cc	Al-
!	!	!	!	!	!	!LO:LB:g=original	!
1F	-le-	1c	-le-	1f	-le-	1a	-le-
!	!	!LO:SIC:v:t=custos F	!	!	!	!	!
1A	-lu-	1c	-lu-	1e	-lu-	1a	-lu-
!	!	!LO:LB:g=original	!	!	!	!	!
=112-	=112-	=112-	=112-	=112-	=112-	=112-	=112-
2D/	-ia	2F/	-ia	1.a	-ia	0f	-ia
2E\	.	2G/	Al-	.	.	.	.
2F\	.	2A/	-le-	.	.	.	.
2G\	.	2B\	-lu-	4g\	.	.	.
.	.	.	.	4f\	.	.	.
1A	.	1c	-ia	1e	.	1r	.
=113-	=113-	=113-	=113-	=113-	=113-	=113-	=113-
*	*ij	*	*	*	*	*	*
1D	Al-	1A	Al-	1f	Al-	1a	Al-
1BB-	-le-	1d	-le-	1f	-le-	1b-	-le-
!LO:SIC:v:t=custos GG	!	!	!	!LO:SIC:v:t=custos B-	!	!	!
1D	-lu-	1d	-lu-	1f	-lu-	1a	-lu-
!LO:LB:g=original	!	!	!	!LO:LB:g=original	!	!	!
=114-	=114-	=114-	=114-	=114-	=114-	=114-	=114-
2GG/	-ia	0d	-ia	2B-/	-ia	1.dd	-ia
2AA/	.	.	.	2c/	.	.	.
2BB-/	.	.	.	2d\	.	.	.
2C/	.	.	.	2e\	.	4cc\	.
.	.	.	.	.	.	4b-\	.
*	*	*	*	*	*	*	*ij
1D	Al-	1r	.	1f	.	1a	Al-
=115-	=115-	=115-	=115-	=115-	=115-	=115-	=115-
*	*	*	*	*	*ij	*	*
1F	-le-	1A	Al-	1c	Al-	1a	-le-
1D	-lu-	1B	-le-	1d	-le-	1f	-lu-
1F	-ia	1A	-lu-	1c	-lu-	1a	-ia
=116-	=116-	=116-	=116-	=116-	=116-	=116-	=116-
2BB-/	.	1.d	-ia	1.f	-ia	1b-	Al-
2C/	.	.	.	.	.	.	.
2D/	.	.	.	.	.	1.f	-le-
2E\	.	4c\	.	4e\	.	.	.
.	.	4B\	.	4d\	.	.	.
1F	Al-	1A	-Al-	1c	Al-	.	.
.	.	.	.	.	.	2g/	-lu-
=117-	=117-	=117-	=117-	=117-	=117-	=117-	=117-
0FF	-le-	0A	-le-	0c	-le-	1.a	-ia
.	.	.	.	.	.	4g/	.
.	.	.	.	.	.	4f/	.
1AA	-lu-	1A	-lu-	1c	-lu-	1e	Al-
=118-	=118-	=118-	=118-	=118-	=118-	=118-	=118-
1AA	-ia	1A	-ia	1c	-ia	0f	-le-
0C	Al-	0G	Al-	0c	Al-	.	.
.	.	.	.	.	.	1e	-lu-
=119-	=119-	=119-	=119-	=119-	=119-	=119-	=119-
1F	-le-	1A	-le-	1c	-le-	00f	-ia
*	*	*	*	*	*	*	*Xij
1D	-lu-	1B	-lu-	1d	-lu-	.	.
1F	-ia	1A	-ia	1c	-ia	.	.
=120-	=120-	=120-	=120-	=120-	=120-	=120-	=120-
2BB-/	.	1.d	Al-	1.f	Al-	.	.
2C/	.	.	.	.	.	.	.
2D/	.	.	.	.	.	1r	.
2E\	.	4c\	-le-	4e\	.	.	.
.	.	4B\	.	4d\	.	.	.
1F	Al-	1A	.	1c	.	1r	.
=121-	=121-	=121-	=121-	=121-	=121-	=121-	=121-
!LO:TX:t=P:problem:kolor	!	!LO:TX:t=P:problem:kolor	!	!	!	!	!
!	!	!	!	!LO:TX:t=P:problem:kolor	!	!	!
0FF	-le-	0c	-lu-	0A	le-	1%3r	.
!LO:TX:t=P:problem:kolor	!	!LO:TX:t=P:problem:kolor	!	!	!	!	!
!	!	!	!	!LO:TX:t=P:problem:kolor	!	!	!
0AA	-lu-	0c	.	0A	-lu-	.	.
=122-	=122-	=122-	=122-	=122-	=122-	=122-	=122-
.	.	.	.	.	.	1%3r	.
!LO:TX:t=P:problem:kolor	!	!LO:TX:t=P:problem:kolor	!	!	!	!	!
!	!	!	!	!LO:TX:t=P:problem:kolor	!	!	!
0BB-	.	0B	.	0d	.	.	.
=123-	=123-	=123-	=123-	=123-	=123-	=123-	=123-
00FF	-ia	00A	ia	00c	-ia	1%3r	.
*	*Xij	*	*Xij	*	*Xij	*	*
=124-	=124-	=124-	=124-	=124-	=124-	=124-	=124-
.	.	.	.	.	.	1%3r	.
1r	.	1r	.	1r	.	.	.
1r	.	1r	.	1r	.	.	.
=-	=-	=-	=-	=-	=-	=-	=-
*-	*-	*-	*-	*-	*-	*-	*-
!!!system-decoration: [(s1,s2,s3,s4)]
!!!ENC: Marta Opryszak
!!!END: 2022-07-05
!!!ENC: Julita Ruszuk
!!!END: 2022-07-27
!!!YEC: Copyright 2022 Narodowy Instytut Fryderyka Chopina (https://polishscores.org)
!!!YEM: Licence CC BY 4.0 (https://creativecommons.org/licenses/by/4.0)
